media/icon-file-type/svgs/presentation/48.svg

<svg width="48" height="64" viewBox="0 0 48 64"><g fill-rule="evenodd"><path fill="#FFF" stroke="#091E42" stroke-opacity=".08" d="M4,0.5 L32.007097,0.5 C32.9580806,0.5 33.8681235,0.886970896 34.5278649,1.57188773 L46.5207679,14.0224343 C47.1490066,14.6746463 47.5,15.5449725 47.5,16.4505466 L47.5,60 C47.5,61.9329966 45.9329966,63.5 44,63.5 L4,63.5 C2.06700338,63.5 0.5,61.9329966 0.5,60 L0.5,4 C0.5,2.06700338 2.06700338,0.5 4,0.5 Z"/><path fill="#8270DB" d="M17,34.3333333 C17.6443322,34.3333333 18.1666667,34.8556678 18.1666667,35.5 L18.1666667,39 C18.1666667,39.6443322 17.6443322,40.1666667 17,40.1666667 C16.3556678,40.1666667 15.8333333,39.6443322 15.8333333,39 L15.8333333,35.5 C15.8333333,34.8556678 16.3556678,34.3333333 17,34.3333333 Z M26.3333333,27.3333333 C26.9776655,27.3333333 27.5,27.8556678 27.5,28.5 L27.5,39 C27.5,39.6443322 26.9776655,40.1666667 26.3333333,40.1666667 C25.6890011,40.1666667 25.1666667,39.6443322 25.1666667,39 L25.1666667,28.5 C25.1666667,27.8556678 25.6890011,27.3333333 26.3333333,27.3333333 Z M21.6666667,32 C22.3109989,32 22.8333333,32.5223345 22.8333333,33.1666667 L22.8333333,39 C22.8333333,39.6443322 22.3109989,40.1666667 21.6666667,40.1666667 C21.0223345,40.1666667 20.5,39.6443322 20.5,39 L20.5,33.1666667 C20.5,32.5223345 21.0223345,32 21.6666667,32 Z M31,23.8333333 C31.6443322,23.8333333 32.1666667,24.3556678 32.1666667,25 L32.1666667,39 C32.1666667,39.6443322 31.6443322,40.1666667 31,40.1666667 C30.3556678,40.1666667 29.8333333,39.6443322 29.8333333,39 L29.8333333,25 C29.8333333,24.3556678 30.3556678,23.8333333 31,23.8333333 Z"/></g></svg>

<svg width="48" height="64" viewBox="0 0 48 64"><g fill-rule="evenodd"><path fill="#FFF" stroke="#091E42" stroke-opacity=".08" d="M4 .5h28.007a3.5 3.5 0 012.52 1.072l11.994 12.45a3.5 3.5 0 01.979 2.429V60a3.5 3.5 0 01-3.5 3.5H4A3.5 3.5 0 01.5 60V4A3.5 3.5 0 014 .5z"/><path fill="#6554C0" d="M17 34.333c.644 0 1.167.523 1.167 1.167V39a1.167 1.167 0 01-2.334 0v-3.5c0-.644.523-1.167 1.167-1.167zm9.333-7c.645 0 1.167.523 1.167 1.167V39a1.167 1.167 0 01-2.333 0V28.5c0-.644.522-1.167 1.166-1.167zM21.667 32c.644 0 1.166.522 1.166 1.167V39a1.167 1.167 0 11-2.333 0v-5.833c0-.645.522-1.167 1.167-1.167zM31 23.833c.644 0 1.167.523 1.167 1.167v14a1.167 1.167 0 01-2.334 0V25c0-.644.523-1.167 1.167-1.167z"/></g></svg>
